X: 11097
T: Duduk's, The
R: jig
M: 6/8
K: Adorian
|:dcB cdc-|cBc dcA|BGG Gd2|cBG ABc|
dcB cBc|cBc dcB|edc BAG|EcB ~A3:|
|:dcB AGE-|EDE GEA-|AGA ABd|BAG AE/F/G|
dcB AGE -|EDE GAc|edc BAG|EcB ~A3:|

